; generated by PrusaSlicer 2.6.1+win64 on 2024-05-09 at 04:29:48 UTC

; 

; external perimeters extrusion width = 0.42mm
; perimeters extrusion width = 0.44mm
; infill extrusion width = 0.44mm
; solid infill extrusion width = 0.44mm
; top infill extrusion width = 0.40mm
; first layer extrusion width = 0.42mm

M201 X500 Y500 Z100 E5000 ; sets maximum accelerations, mm/sec^2
M203 X500 Y500 Z10 E60 ; sets maximum feedrates, mm / sec
M204 S500 T1000 ; sets acceleration (S) and retract acceleration (R), mm/sec^2
M205 X8.00 Y8.00 Z0.40 E5.00 ; sets the jerk limits, mm/sec
M205 S0 T0 ; sets the minimum extruding and travel feed rate, mm/sec
;TYPE:Custom
G90 ; use absolute coordinates
M83 ; extruder relative mode
G28 ; home all axis
G1 Z50 F240
G1 X2.0 Y10 F3000
G1 Z0.28 F240
G92 E0
G1 X2.0 Y140 E10 F1500 ; prime the nozzle
G1 X2.3 Y140 F5000
G92 E0
G1 X2.3 Y10 E10 F1200 ; prime the nozzle
G92 E0
G21 ; set units to millimeters
G90 ; use absolute coordinates
M83 ; use relative distances for extrusion
; Filament gcode
M107
;LAYER_CHANGE
;Z:0.2
;HEIGHT:0.2
;BEFORE_LAYER_CHANGE
G92 E0
;0.2


G1 E-6 F4800
G1 Z.2 F9000
;AFTER_LAYER_CHANGE
;0.2
; printing object abc id:0 copy 0
G1 Z5.2
G1 X42.802 Y78.294
G1 Z.2
G1 E6 F2400
M204 S500
;TYPE:External perimeter
;WIDTH:0.38292
G1 F1200
G1 X43.039 Y77.439 E.02508
G1 X43.315 Y76.716 E.02188
G1 X43.674 Y75.931 E.0244
G1 X44.105 Y75.184 E.02438
G1 X44.453 Y74.685 E.0172
G1 X45.002 Y73.985 E.02515
G1 X45.459 Y73.507 E.0187
G1 X46.09 Y72.919 E.02438
G1 X46.775 Y72.393 E.02442
G1 X47.503 Y71.929 E.02441
G1 X48.269 Y71.53 E.02442
G1 X49.066 Y71.199 E.0244
G1 X49.823 Y70.966 E.02239
G1 X50.688 Y70.767 E.02509
G1 X51.59 Y70.638 E.02576
G1 X52.454 Y70.6 E.02445
G1 X198.549 Y70.605 E4.13027
G1 X198.996 Y70.611 E.01264
G1 X199.881 Y70.691 E.02512
G1 X200.754 Y70.85 E.02509
G1 X201.522 Y71.068 E.02257
G1 X202.334 Y71.361 E.0244
G1 X203.241 Y71.786 E.02832
G1 X203.862 Y72.16 E.02049
G1 X204.573 Y72.649 E.0244
G1 X205.232 Y73.205 E.02438
G1 X206.13 Y74.139 E.03663
G1 X206.656 Y74.823 E.02439
G1 X207.119 Y75.551 E.02439
G1 X207.46 Y76.212 E.02103
G1 X207.814 Y77.026 E.02509
G1 X208.087 Y77.868 E.02502
G1 X208.209 Y78.358 E.01428
G1 X208.354 Y79.209 E.02441
G1 X208.439 Y80.068 E.0244
G1 X208.444 Y170.504 E2.55673
G1 X208.399 Y171.39 E.02508
G1 X208.288 Y172.271 E.0251
G1 X208.089 Y173.136 E.02509
G1 X207.813 Y173.981 E.02513
G1 X207.323 Y175.068 E.03371
G1 X206.807 Y175.946 E.02879
G1 X206.654 Y176.177 E.00783
G1 X206.129 Y176.861 E.02438
G1 X205.547 Y177.497 E.02437
G1 X205.052 Y177.95 E.01897
G1 X204.568 Y178.346 E.01768
G1 X203.866 Y178.847 E.02438
G1 X203.118 Y179.278 E.02441
G1 X202.021 Y179.766 E.03394
G1 X201.522 Y179.932 E.01487
G1 X200.691 Y180.163 E.02438
G1 X199.432 Y180.356 E.03601
G1 X198.549 Y180.4 E.02499
G1 X52.454 Y180.4 E4.13027
G1 X51.119 Y180.309 E.03783
G1 X50.311 Y180.155 E.02325
G1 X49.477 Y179.937 E.02437
G1 X48.972 Y179.757 E.01516
G1 X48.272 Y179.462 E.02148
G1 X47.761 Y179.206 E.01616
G1 X47.138 Y178.84 E.02043
G1 X46.636 Y178.499 E.01716
G1 X45.939 Y177.949 E.0251
G1 X45.155 Y177.186 E.03093
G1 X44.718 Y176.663 E.01927
G1 X44.191 Y175.949 E.02509
G1 X43.739 Y175.185 E.0251
G1 X43.307 Y174.287 E.02817
G1 X43.011 Y173.476 E.02441
G1 X42.787 Y172.642 E.02441
G1 X42.637 Y171.792 E.0244
G1 X42.556 Y170.499 E.03663
G1 X42.561 Y80.068 E2.55659
G1 X42.642 Y79.168 E.02555
G1 X42.791 Y78.353 E.02342
G1 X43.184 Y78.176 F9000
G1 E-3 F4800
;WIPE_START
G1 F7200
G1 X43.039 Y77.439 E-.5998
G1 X43.315 Y76.716 E-.49013
G1 X43.674 Y75.931 E-.54669
G1 X44.105 Y75.184 E-.5462
G1 X44.453 Y74.685 E-.3853
G1 X44.874 Y74.148 E-.43188
;WIPE_END
G1 Z5.2 F9000
G1 X149.504 Y79.404
G1 Z.2
G1 E6 F2400
G1 F1200
G1 X144.7 Y79.404 E.13581
G1 X144.64 Y79.377 E.00186
G1 X142.481 Y76.883 E.09326
G1 X142.439 Y76.785 E.00301
G1 X142.54 Y76.753 E.003
G1 X149.504 Y76.753 E.19688
G1 X149.569 Y76.766 E.00187
G1 X149.583 Y76.832 E.00191
G1 X149.583 Y79.325 E.07048
G1 X149.563 Y79.392 E.00198
G1 X149.16 Y79.2 F9000
G1 E-3 F4800
;WIPE_START
G1 F7200
G1 X144.826 Y79.404 E-3
;WIPE_END
G1 Z5.2 F9000
G1 X149.759 Y89.474
G1 Z.2
G1 E6 F2400
G1 F1200
G1 X149.746 Y89.54 E.0019
G1 X149.681 Y89.553 E.00187
G1 X147.006 Y89.553 E.07563
G1 X146.944 Y89.524 E.00194
G1 X138.544 Y79.069 E.37916
G1 X138.527 Y79.02 E.00147
G1 X138.527 Y76.832 E.06186
G1 X138.54 Y76.766 E.0019
G1 X138.605 Y76.753 E.00187
G1 X141.193 Y76.753 E.07317
G1 X141.254 Y76.782 E.00191
G1 X149.757 Y87.172 E.37956
G1 X149.759 Y89.414 E.06338
G1 X149.704 Y89.511 F9000
G1 E-3 F4800
;WIPE_START
G1 F7200
G1 X149.746 Y89.54 E-.08022
G1 X149.681 Y89.553 E-.04198
G1 X147.006 Y89.553 E-1.69417
G1 X146.944 Y89.524 E-.04335
G1 X145.816 Y88.12 E-1.14028
;WIPE_END
G1 Z5.2 F9000
G1 X145.778 Y89.521
G1 Z.2
G1 E6 F2400
G1 F1200
G1 X145.677 Y89.553 E.003
G1 X138.87 Y89.553 E.19244
G1 X138.805 Y89.54 E.00187
G1 X138.791 Y89.474 E.00191
G1 X138.791 Y86.991 E.0702
G1 X138.805 Y86.925 E.00191
G1 X138.87 Y86.912 E.00187
G1 X143.527 Y86.912 E.13166
G1 X143.587 Y86.939 E.00186
G1 X145.737 Y89.423 E.09288
G1 X145.755 Y89.465 E.00129
G1 X145.823 Y89.616 F9000
G1 E-3 F4800
;WIPE_START
G1 F7200
G1 X145.677 Y89.553 E-.07448
G1 X141.058 Y89.553 E-2.92552
;WIPE_END
G1 Z5.2 F9000
G1 X132.777 Y89.528
G1 Z.2
G1 E6 F2400
G1 F1200
G1 X132.689 Y89.553 E.00259
G1 X128.923 Y89.553 E.10647
G1 X128.854 Y89.512 E.00227
G1 X126.812 Y85.7 E.12226
G1 X126.811 Y85.628 E.00204
G1 X128.719 Y81.759 E.12196
G1 X128.788 Y81.685 E.00286
G1 X128.859 Y81.758 E.00288
G1 X132.765 Y89.47 E.2444
G1 X132.807 Y89.614 F9000
G1 E-3 F4800
;WIPE_START
G1 F7200
G1 X132.689 Y89.553 E-.07127
G1 X128.923 Y89.553 E-2.38513
G1 X128.854 Y89.512 E-.05083
G1 X128.487 Y88.826 E-.49277
;WIPE_END
G1 Z5.2 F9000
G1 X123.975 Y89.509
G1 Z.2
G1 E6 F2400
G1 F1200
G1 X123.905 Y89.553 E.00234
G1 X120.052 Y89.553 E.10893
G1 X119.965 Y89.529 E.00255
G1 X119.982 Y89.439 E.00259
G1 X124.264 Y80.827 E.27191
G1 X124.273 Y76.832 E.11294
G1 X124.286 Y76.766 E.0019
G1 X124.351 Y76.753 E.00187
G1 X128.334 Y76.753 E.1126
G1 X128.399 Y76.766 E.00187
G1 X128.412 Y76.832 E.0019
G1 X128.404 Y80.477 E.10305
G1 X124.001 Y89.455 E.2827
G1 X123.895 Y89.487 F9000
G1 E-3 F4800
;WIPE_START
G1 F7200
G1 X123.905 Y89.553 E-.08688
G1 X120.052 Y89.553 E-2.44023
G1 X119.965 Y89.529 E-.05716
G1 X119.982 Y89.439 E-.05801
G1 X120.233 Y88.933 E-.35772
;WIPE_END
G1 Z5.2 F9000
G1 X105.501 Y82.431
G1 Z.2
G1 E6 F2400
G1 F1200
G1 X101.699 Y76.876 E.19031
G1 X101.669 Y76.782 E.00279
G1 X101.764 Y76.753 E.00281
G1 X106.271 Y76.753 E.12742
G1 X106.339 Y76.791 E.0022
G1 X107.747 Y79.136 E.07733
G1 X107.752 Y79.208 E.00204
G1 X105.632 Y82.43 E.10904
G1 X105.567 Y82.488 E.00246
G1 X105.547 Y82.47 E.00076
G1 X105.133 Y82.588 F9000
G1 E-3 F4800
;WIPE_START
G1 F7200
G1 X102.862 Y78.567 E-3
;WIPE_END
G1 Z5.2 F9000
G1 X110.977 Y84.052
G1 Z.2
G1 E6 F2400
G1 F1200
G1 X111.043 Y83.995 E.00247
G1 X111.108 Y84.053 E.00246
G1 X114.631 Y89.431 E.18176
G1 X114.659 Y89.525 E.00277
G1 X114.565 Y89.553 E.00277
G1 X110.352 Y89.553 E.11911
G1 X110.285 Y89.515 E.00218
G1 X108.879 Y87.201 E.07655
G1 X108.881 Y87.116 E.0024
G1 X110.943 Y84.101 E.10327
G1 X110.953 Y83.968 F9000
G1 E-3 F4800
;WIPE_START
G1 F7200
G1 X111.043 Y83.995 E-.09229
G1 X111.108 Y84.053 E-.05517
G1 X113.576 Y87.821 E-2.85254
;WIPE_END
G1 Z5.2 F9000
G1 X114.812 Y76.875
G1 Z.2
G1 E6 F2400
G1 F1200
G1 X106.332 Y89.518 E.43039
G1 X106.267 Y89.553 E.00209
G1 X102.023 Y89.553 E.11998
G1 X101.929 Y89.525 E.00277
G1 X101.958 Y89.431 E.00278
G1 X110.39 Y76.788 E.42963
G1 X110.455 Y76.753 E.00209
G1 X114.747 Y76.753 E.12134
G1 X114.841 Y76.781 E.00277
G1 X114.831 Y76.819 E.00111
G1 X115.103 Y77.149 F9000
G1 E-3 F4800
;WIPE_START
G1 F7200
G1 X112.196 Y80.756 E-3
;WIPE_END
G1 Z5.2 F9000
G1 X65.783 Y115.773
G1 Z.2
G1 E6 F2400
G1 F1200
G1 X65.848 Y115.786 E.00187
G1 X65.862 Y115.851 E.00188
G1 X65.862 Y118.09 E.0633
G1 X65.848 Y118.155 E.00188
G1 X65.783 Y118.169 E.00188
G1 X62.695 Y118.169 E.0873
G1 X62.639 Y118.146 E.00171
G1 X60.138 Y115.654 E.09981
G1 X60.115 Y115.598 E.00171
G1 X60.115 Y107.939 E.21653
G1 X60.138 Y107.883 E.00171
G1 X62.639 Y105.392 E.09979
G1 X62.695 Y105.369 E.00171
G1 X65.872 Y105.369 E.08982
G1 X65.926 Y105.347 E.00165
G1 X69.619 Y101.815 E.14447
G1 X69.674 Y101.781 E.00183
G1 X69.728 Y101.816 E.00182
G1 X71.793 Y103.819 E.08133
G1 X71.831 Y103.876 E.00194
G1 X71.802 Y103.923 E.00156
G1 X67.757 Y107.743 E.15729
G1 X67.703 Y107.765 E.00165
G1 X64.324 Y107.765 E.09553
G1 X64.259 Y107.778 E.00187
G1 X64.245 Y107.843 E.00188
G1 X64.245 Y115.694 E.22196
G1 X64.259 Y115.759 E.00188
G1 X64.324 Y115.773 E.00188
G1 X65.723 Y115.773 E.03955
G1 X65.824 Y115.72 F9000
G1 E-3 F4800
;WIPE_START
G1 F7200
G1 X65.848 Y115.786 E-.07959
G1 X65.862 Y115.851 E-.04211
G1 X65.862 Y118.09 E-1.41803
G1 X65.848 Y118.155 E-.04211
G1 X65.783 Y118.169 E-.04211
G1 X63.61 Y118.169 E-1.37605
;WIPE_END
G1 Z5.2 F9000
G1 X68.275 Y115.773
G1 Z.2
G1 E6 F2400
G1 F1200
G1 X68.34 Y115.759 E.00188
G1 X68.354 Y115.694 E.00188
G1 X68.354 Y108.325 E.20833
G1 X68.379 Y108.267 E.00179
G1 X70.654 Y106.165 E.08757
G1 X70.709 Y106.131 E.00183
G1 X70.763 Y106.167 E.00183
G1 X72.481 Y107.907 E.06913
G1 X72.484 Y115.599 E.21746
G1 X72.461 Y115.654 E.00169
G1 X69.97 Y118.146 E.09961
G1 X69.914 Y118.169 E.00171
G1 X66.806 Y118.169 E.08787
G1 X66.741 Y118.155 E.00188
G1 X66.728 Y118.09 E.00187
G1 X66.728 Y115.851 E.0633
G1 X66.741 Y115.786 E.00187
G1 X66.806 Y115.773 E.00187
G1 X68.215 Y115.773 E.03983
G1 X68.316 Y115.825 F9000
G1 E-3 F4800
;WIPE_START
G1 F7200
G1 X68.34 Y115.759 E-.07966
G1 X68.354 Y115.694 E-.04211
G1 X68.354 Y111.149 E-2.87823
;WIPE_END
G1 Z5.2 F9000
G1 X79.888 Y118.155
G1 Z.2
G1 E6 F2400
G1 F1200
G1 X79.875 Y118.09 E.00187
G1 X79.875 Y105.447 E.35743
G1 X79.888 Y105.382 E.00187
G1 X79.953 Y105.369 E.00187
G1 X83.926 Y105.369 E.11232
G1 X83.991 Y105.382 E.00187
G1 X84.005 Y105.447 E.00188
G1 X84.005 Y118.09 E.35743
G1 X83.991 Y118.155 E.00188
G1 X83.926 Y118.169 E.00188
G1 X79.947 Y118.167 E.11249
G1 X79.913 Y118.094 F9000
G1 E-3 F4800
;WIPE_START
G1 F7200
G1 X79.875 Y118.09 E-.06676
G1 X79.875 Y113.459 E-2.93324
;WIPE_END
G1 Z5.2 F9000
G1 X84.969 Y118.169
G1 Z.2
G1 E6 F2400
G1 F1200
G1 X84.904 Y118.155 E.00188
G1 X84.891 Y118.09 E.00187
G1 X84.891 Y115.851 E.0633
G1 X84.904 Y115.786 E.00187
G1 X84.969 Y115.773 E.00187
G1 X88.064 Y115.773 E.0875
G1 X88.129 Y115.759 E.00188
G1 X88.143 Y115.694 E.00188
G1 X88.143 Y111.664 E.11393
G1 X88.129 Y111.599 E.00188
G1 X88.064 Y111.585 E.00188
G1 X84.969 Y111.585 E.0875
G1 X84.904 Y111.572 E.00187
G1 X84.891 Y111.507 E.00187
G1 X84.891 Y109.346 E.06109
G1 X84.904 Y109.281 E.00187
G1 X84.969 Y109.268 E.00187
G1 X86.332 Y109.268 E.03853
G1 X86.403 Y109.223 E.00238
G1 X88.203 Y105.414 E.1191
G1 X88.274 Y105.369 E.00238
G1 X92.483 Y105.369 E.11899
G1 X92.573 Y105.394 E.00264
G1 X92.552 Y105.485 E.00264
G1 X90.213 Y109.772 E.13806
G1 X92.221 Y111.792 E.08052
G1 X92.244 Y111.848 E.00171
G1 X92.244 Y115.598 E.10602
G1 X92.221 Y115.654 E.00171
G1 X89.719 Y118.146 E.09983
G1 X89.664 Y118.169 E.00169
G1 X85.029 Y118.169 E.13104
G1 X84.928 Y118.221 F9000
G1 E-3 F4800
;WIPE_START
G1 F7200
G1 X84.904 Y118.155 E-.07966
G1 X84.891 Y118.09 E-.04198
G1 X84.891 Y115.851 E-1.41803
G1 X84.904 Y115.786 E-.04198
G1 X84.969 Y115.773 E-.04198
G1 X87.142 Y115.773 E-1.37637
;WIPE_END
G1 Z5.2 F9000
G1 X103.572 Y107.533
G1 Z.2
G1 E6 F2400
G1 F1200
G1 X103.545 Y109.054 E.04301
G1 X103.48 Y109.068 E.00188
G1 X99.507 Y109.068 E.11232
G1 X99.442 Y109.054 E.00188
G1 X99.429 Y108.989 E.00187
G1 X99.429 Y107.93 E.02994
G1 X99.447 Y107.879 E.00153
G1 X101.536 Y105.397 E.09171
G1 X101.596 Y105.369 E.00187
G1 X106.693 Y105.369 E.1441
G1 X106.758 Y105.382 E.00187
G1 X106.772 Y105.447 E.00188
G1 X106.772 Y107.441 E.05637
G1 X106.758 Y107.506 E.00188
G1 X106.693 Y107.52 E.00188
G1 X103.631 Y107.521 E.08657
G1 X103.172 Y107.53 F9000
G1 E-3 F4800
;WIPE_START
G1 F7200
G1 X103.545 Y109.054 E-.97243
G1 X103.48 Y109.068 E-.04211
G1 X100.345 Y109.068 E-1.98546
;WIPE_END
G1 Z5.2 F9000
G1 X103.382 Y113.554
G1 Z.2
G1 E6 F2400
G1 F1200
G1 X103.317 Y113.568 E.00188
G1 X103.304 Y113.633 E.00187
G1 X103.304 Y118.09 E.126
G1 X103.29 Y118.155 E.00188
G1 X103.225 Y118.169 E.00188
G1 X102.008 Y118.169 E.03441
G1 X101.953 Y118.146 E.00169
G1 X99.452 Y115.654 E.09981
G1 X99.429 Y115.598 E.00171
G1 X99.429 Y112.817 E.07862
G1 X99.452 Y112.762 E.00169
G1 X101.953 Y110.261 E.09999
G1 X102.008 Y110.238 E.00169
G1 X107.579 Y110.238 E.1575
G1 X107.644 Y110.224 E.00188
G1 X107.658 Y110.159 E.00188
G1 X107.658 Y105.447 E.13321
G1 X107.671 Y105.382 E.00187
G1 X107.736 Y105.369 E.00187
G1 X109.227 Y105.369 E.04215
G1 X109.283 Y105.392 E.00171
G1 X111.794 Y107.907 E.10047
G1 X111.798 Y110.976 E.08676
G1 X111.775 Y111.031 E.00169
G1 X109.361 Y113.531 E.09825
G1 X109.304 Y113.554 E.00174
G1 X103.442 Y113.554 E.16573
G1 X103.342 Y113.502 F9000
G1 E-3 F4800
;WIPE_START
G1 F7200
G1 X103.317 Y113.568 E-.07966
G1 X103.304 Y113.633 E-.04198
G1 X103.304 Y118.09 E-2.82277
G1 X103.29 Y118.155 E-.04211
G1 X103.269 Y118.159 E-.01348
;WIPE_END
G1 Z5.2 F9000
G1 X107.644 Y116.014
G1 Z.2
G1 E6 F2400
G1 F1200
G1 X107.671 Y114.738 E.03608
G1 X107.736 Y114.724 E.00188
G1 X111.366 Y114.724 E.10262
G1 X111.431 Y114.738 E.00188
G1 X111.445 Y114.803 E.00188
G1 X111.445 Y115.932 E.03192
G1 X111.422 Y115.987 E.00169
G1 X109.273 Y118.146 E.08612
G1 X109.217 Y118.169 E.00171
G1 X104.268 Y118.169 E.13991
G1 X104.203 Y118.155 E.00188
G1 X104.19 Y118.09 E.00187
G1 X104.19 Y116.106 E.05609
G1 X104.203 Y116.041 E.00187
G1 X104.268 Y116.027 E.00188
G1 X107.585 Y116.026 E.09378
G1 X108.044 Y116.018 F9000
G1 E-3 F4800
;WIPE_START
G1 F7200
G1 X107.671 Y114.738 E-.81755
G1 X107.736 Y114.724 E-.04211
G1 X111.115 Y114.724 E-2.14034
;WIPE_END
G1 Z5.2 F9000
G1 X122.039 Y114.583
G1 Z.2
G1 E6 F2400
G1 F1200
G1 X122.039 Y105.447 E.25828
G1 X122.052 Y105.382 E.00187
G1 X122.118 Y105.369 E.0019
G1 X126.267 Y105.369 E.1173
G1 X126.332 Y105.382 E.00187
G1 X126.345 Y105.447 E.00187
G1 X126.345 Y114.583 E.25828
G1 X126.332 Y114.648 E.00187
G1 X126.267 Y114.661 E.00187
G1 X122.118 Y114.661 E.1173
G1 X122.051 Y114.642 E.00197
G1 X122.241 Y114.238 F9000
G1 E-3 F4800
;WIPE_START
G1 F7200
G1 X122.045 Y109.905 E-3
;WIPE_END
G1 Z5.2 F9000
G1 X118.728 Y115.537
G1 Z.2
G1 E6 F2400
G1 F1200
G1 X129.656 Y115.537 E.30895
G1 X129.721 Y115.551 E.00188
G1 X129.735 Y115.616 E.00188
G1 X129.735 Y118.09 E.06994
G1 X129.721 Y118.155 E.00188
G1 X129.656 Y118.169 E.00188
G1 X118.728 Y118.169 E.30895
G1 X118.663 Y118.155 E.00188
G1 X118.649 Y118.09 E.00188
G1 X118.649 Y115.616 E.06994
G1 X118.669 Y115.55 E.00195
G1 X119.072 Y115.741 F9000
G1 E-3 F4800
;WIPE_START
G1 F7200
G1 X123.406 Y115.544 E-3
;WIPE_END
G1 Z5.2 F9000
G1 X140.893 Y107.765
G1 Z.2
G1 E6 F2400
G1 F1200
G1 X140.828 Y107.778 E.00187
G1 X140.815 Y107.843 E.00187
G1 X140.815 Y118.09 E.28969
G1 X140.801 Y118.155 E.00188
G1 X140.736 Y118.169 E.00188
G1 X136.754 Y118.169 E.11258
G1 X136.688 Y118.155 E.00191
G1 X136.675 Y118.09 E.00187
G1 X136.675 Y107.939 E.28698
G1 X136.698 Y107.883 E.00171
G1 X139.199 Y105.392 E.09979
G1 X139.255 Y105.369 E.00171
G1 X142.333 Y105.369 E.08702
G1 X142.398 Y105.382 E.00187
G1 X142.412 Y105.447 E.00188
G1 X142.412 Y107.686 E.0633
G1 X142.398 Y107.751 E.00188
G1 X142.333 Y107.765 E.00188
G1 X140.953 Y107.765 E.03901
G1 X140.853 Y107.712 F9000
G1 E-3 F4800
;WIPE_START
G1 F7200
G1 X140.828 Y107.778 E-.07959
